X:2106
T:Tachum (Scotch Snap)
O:Kevin Fraser
Z:Kevin Fraser
B: https://www.teachyourselfbagpipes.co.uk/tachum.htm
Q:1/4=78
K:HP
M:4/4
L:1/8
R:March
%%MIDI gracedivider 4
%%MIDI gchord
%%MIDI beatstring
|: {g}c<{d}A {g}B<{d}G {g}c<{d}A {g}B<{d}G | {gcd}c<{e}A {gBd}B<{e}G {gcd}c<{e}A {gBd}B<{e}G|  {g}c<{d}A {g}B<{d}G {g}c<{d}A {g}B<{d}G | {gcd}c<{e}A {gBd}B<{e}G {gcd}c<{e}A {gBd}B<{e}G:|
|  d4 {g}c {d}A3  d4 {g}c {d}A3|
w: a   hi    en   a   hi   en
|  c4 {g}B {d}G3  c4 {g}B {d}G3|
w: o   ho  em    o   ho  em
w:
|  d4 {gcd}c {e}A3  d4 {gcd}c {e}A3|
w: a   hido   en    a   hido   en
|  c4 {gcd}B {e}G3  c4 {gcd}B {e}G3|
w: o   hoto   em   o   hoto  em

